images/icons.svg/Client-four.svg

<svg width="168" height="88" viewBox="0 0 168 88" fill="none" xmlns="http://www.w3.org/2000/svg">
<g id="Client 4">
<rect id="Rectangle 9" x="0.5" y="0.5" width="167" height="87" rx="3.5" stroke="#8E8F99"/>
<g id="Logo">
<g id="group">
<path id="Vector" d="M56.0782 37.5179H56.0753C53.6897 37.5179 51.7557 39.2616 51.7557 41.4124V41.415C51.7557 43.5658 53.6897 45.3094 56.0753 45.3094H56.0782C58.4638 45.3094 60.3978 43.5658 60.3978 41.415V41.4124C60.3978 39.2616 58.4638 37.5179 56.0782 37.5179Z" fill="#8E8F99"/>
<path id="Vector_2" d="M87.9614 36.273C87.9546 33.2855 86.6355 30.4221 84.2928 28.3094C81.9501 26.1967 78.7745 25.0068 75.461 25V25C72.1466 25.0054 68.9696 26.1948 66.6256 28.3076C64.2817 30.4205 62.9618 33.2846 62.955 36.273V52.7472C62.955 52.7472 87.9585 50.2364 87.9614 36.2755V36.273Z" fill="#8E8F99"/>
<path id="Vector_3" d="M43 58.1543C43.006 60.233 43.9243 62.2251 45.5543 63.6952C47.1843 65.1653 49.3935 65.9939 51.699 66C54.004 65.9939 56.2127 65.1657 57.8426 63.6961C59.4725 62.2265 60.3912 60.2351 60.398 58.1569V46.6938C60.398 46.6938 43 48.4422 43 58.1543ZM51.699 60.2082C51.2484 60.2082 50.808 60.0877 50.4334 59.862C50.0588 59.6364 49.7668 59.3156 49.5944 58.9403C49.422 58.565 49.3769 58.152 49.4648 57.7536C49.5527 57.3552 49.7696 56.9893 50.0882 56.702C50.4068 56.4148 50.8127 56.2192 51.2546 56.1399C51.6965 56.0607 52.1545 56.1014 52.5707 56.2568C52.987 56.4123 53.3427 56.6755 53.593 57.0133C53.8433 57.351 53.9769 57.7481 53.9769 58.1543C53.9781 58.4247 53.92 58.6926 53.806 58.9427C53.692 59.1927 53.5244 59.4201 53.3128 59.6116C53.1011 59.8031 52.8496 59.9551 52.5727 60.0588C52.2958 60.1625 51.9988 60.2159 51.699 60.2159V60.2082Z" fill="#8E8F99"/>
<path id="FOSTER PETERS" d="M67.6089 56.515V60.7806H66.73V56.515H67.6089ZM69.3081 58.3373V59.0228H67.3687V58.3373H69.3081ZM69.5132 56.515V57.2035H67.3687V56.515H69.5132ZM73.5269 58.5482V58.7504C73.5269 59.0746 73.4829 59.3656 73.395 59.6234C73.3071 59.8812 73.1831 60.101 73.0229 60.2826C72.8628 60.4623 72.6714 60.6 72.4487 60.6957C72.228 60.7914 71.9829 60.8392 71.7134 60.8392C71.4458 60.8392 71.2007 60.7914 70.978 60.6957C70.7573 60.6 70.5659 60.4623 70.4038 60.2826C70.2417 60.101 70.1157 59.8812 70.0259 59.6234C69.938 59.3656 69.894 59.0746 69.894 58.7504V58.5482C69.894 58.222 69.938 57.931 70.0259 57.6752C70.1138 57.4174 70.2378 57.1976 70.3979 57.016C70.5601 56.8344 70.7515 56.6957 70.9722 56.6C71.1948 56.5043 71.4399 56.4564 71.7075 56.4564C71.9771 56.4564 72.2222 56.5043 72.4429 56.6C72.6655 56.6957 72.8569 56.8344 73.0171 57.016C73.1792 57.1976 73.3042 57.4174 73.3921 57.6752C73.4819 57.931 73.5269 58.222 73.5269 58.5482ZM72.6392 58.7504V58.5424C72.6392 58.3158 72.6187 58.1166 72.5776 57.9447C72.5366 57.7728 72.4761 57.6283 72.396 57.5111C72.3159 57.3939 72.2183 57.306 72.103 57.2474C71.9878 57.1869 71.856 57.1566 71.7075 57.1566C71.5591 57.1566 71.4272 57.1869 71.312 57.2474C71.1987 57.306 71.1021 57.3939 71.022 57.5111C70.9438 57.6283 70.8843 57.7728 70.8433 57.9447C70.8022 58.1166 70.7817 58.3158 70.7817 58.5424V58.7504C70.7817 58.975 70.8022 59.1742 70.8433 59.348C70.8843 59.5199 70.9448 59.6654 71.0249 59.7845C71.105 59.9017 71.2026 59.9906 71.3179 60.0511C71.4331 60.1117 71.5649 60.142 71.7134 60.142C71.8618 60.142 71.9937 60.1117 72.1089 60.0511C72.2241 59.9906 72.3208 59.9017 72.3989 59.7845C72.4771 59.6654 72.5366 59.5199 72.5776 59.348C72.6187 59.1742 72.6392 58.975 72.6392 58.7504ZM76.3804 59.6644C76.3804 59.5883 76.3687 59.5199 76.3452 59.4594C76.3237 59.3969 76.2827 59.3402 76.2222 59.2894C76.1616 59.2367 76.0767 59.1849 75.9673 59.1342C75.8579 59.0834 75.7163 59.0306 75.5425 58.976C75.3491 58.9135 75.1655 58.8431 74.9917 58.765C74.8198 58.6869 74.6675 58.5961 74.5347 58.4926C74.4038 58.3871 74.3003 58.265 74.2241 58.1263C74.1499 57.9877 74.1128 57.8265 74.1128 57.6429C74.1128 57.4652 74.1519 57.3041 74.23 57.1595C74.3081 57.0131 74.4175 56.8881 74.5581 56.7845C74.6987 56.6791 74.8647 56.598 75.0562 56.5414C75.2495 56.4847 75.4614 56.4564 75.6919 56.4564C76.0063 56.4564 76.2808 56.5131 76.5151 56.6263C76.7495 56.7396 76.9312 56.8949 77.0601 57.0922C77.1909 57.2894 77.2563 57.515 77.2563 57.7689H76.3833C76.3833 57.6439 76.3569 57.5345 76.3042 57.4408C76.2534 57.3451 76.1753 57.2699 76.0698 57.2152C75.9663 57.1605 75.8354 57.1332 75.6772 57.1332C75.5249 57.1332 75.3979 57.1566 75.2964 57.2035C75.1948 57.2484 75.1187 57.3099 75.0679 57.3881C75.0171 57.4642 74.9917 57.5502 74.9917 57.6459C74.9917 57.7181 75.0093 57.7836 75.0444 57.8422C75.0815 57.9008 75.1362 57.9554 75.2085 58.0062C75.2808 58.057 75.3696 58.1049 75.4751 58.1498C75.5806 58.1947 75.7026 58.2386 75.8413 58.2816C76.0737 58.3519 76.2778 58.431 76.4536 58.5189C76.6313 58.6068 76.7798 58.7054 76.8989 58.8148C77.0181 58.9242 77.1079 59.0482 77.1685 59.1869C77.229 59.3256 77.2593 59.4828 77.2593 59.6586C77.2593 59.8441 77.2231 60.0101 77.1509 60.1566C77.0786 60.3031 76.9741 60.4271 76.8374 60.5287C76.7007 60.6302 76.5376 60.7074 76.3481 60.7601C76.1587 60.8129 75.9468 60.8392 75.7124 60.8392C75.5015 60.8392 75.2935 60.8119 75.0884 60.7572C74.8833 60.7006 74.6968 60.6156 74.5288 60.5023C74.3628 60.389 74.23 60.2445 74.1304 60.0687C74.0308 59.8929 73.981 59.6849 73.981 59.4447H74.8628C74.8628 59.5775 74.8833 59.6898 74.9243 59.7816C74.9653 59.8734 75.0229 59.9476 75.0972 60.0043C75.1733 60.0609 75.2632 60.1019 75.3667 60.1273C75.4722 60.1527 75.5874 60.1654 75.7124 60.1654C75.8647 60.1654 75.9897 60.1439 76.0874 60.101C76.187 60.058 76.2603 59.9984 76.3071 59.9222C76.356 59.8461 76.3804 59.7601 76.3804 59.6644ZM79.7642 56.515V60.7806H78.8882V56.515H79.7642ZM81.0767 56.515V57.2035H77.5962V56.515H81.0767ZM84.4399 60.0951V60.7806H82.1694V60.0951H84.4399ZM82.4565 56.515V60.7806H81.5776V56.515H82.4565ZM84.144 58.2523V58.9203H82.1694V58.2523H84.144ZM84.437 56.515V57.2035H82.1694V56.515H84.437ZM84.9526 56.515H86.5435C86.8696 56.515 87.1499 56.5638 87.3843 56.6615C87.6206 56.7592 87.8022 56.9037 87.9292 57.0951C88.0562 57.2865 88.1196 57.5219 88.1196 57.8011C88.1196 58.0297 88.0806 58.226 88.0024 58.39C87.9263 58.5521 87.8179 58.6879 87.6772 58.7972C87.5386 58.9047 87.3755 58.9906 87.188 59.0551L86.9097 59.2015H85.5269L85.521 58.516H86.5493C86.7036 58.516 86.8315 58.4886 86.9331 58.434C87.0347 58.3793 87.1108 58.3031 87.1616 58.2054C87.2144 58.1078 87.2407 57.9945 87.2407 57.8656C87.2407 57.7289 87.2153 57.6107 87.1646 57.5111C87.1138 57.4115 87.0366 57.3353 86.9331 57.2826C86.8296 57.2299 86.6997 57.2035 86.5435 57.2035H85.8315V60.7806H84.9526V56.515ZM87.3374 60.7806L86.3647 58.8793L87.2935 58.8734L88.2778 60.7396V60.7806H87.3374ZM91.9517 59.2601H90.8647V58.5746H91.9517C92.1196 58.5746 92.2563 58.5472 92.3618 58.4926C92.4673 58.4359 92.5444 58.3578 92.5933 58.2582C92.6421 58.1586 92.6665 58.0463 92.6665 57.9213C92.6665 57.7943 92.6421 57.6761 92.5933 57.5668C92.5444 57.4574 92.4673 57.3695 92.3618 57.3031C92.2563 57.2367 92.1196 57.2035 91.9517 57.2035H91.1694V60.7806H90.2905V56.515H91.9517C92.2856 56.515 92.5718 56.5756 92.8101 56.6967C93.0503 56.8158 93.2339 56.9808 93.3608 57.1918C93.4878 57.4027 93.5513 57.6439 93.5513 57.9154C93.5513 58.1908 93.4878 58.4291 93.3608 58.6302C93.2339 58.8314 93.0503 58.9867 92.8101 59.0961C92.5718 59.2054 92.2856 59.2601 91.9517 59.2601ZM97.02 60.0951V60.7806H94.7495V60.0951H97.02ZM95.0366 56.515V60.7806H94.1577V56.515H95.0366ZM96.7241 58.2523V58.9203H94.7495V58.2523H96.7241ZM97.0171 56.515V57.2035H94.7495V56.515H97.0171ZM99.4985 56.515V60.7806H98.6226V56.515H99.4985ZM100.811 56.515V57.2035H97.3306V56.515H100.811ZM104.174 60.0951V60.7806H101.904V60.0951H104.174ZM102.191 56.515V60.7806H101.312V56.515H102.191ZM103.878 58.2523V58.9203H101.904V58.2523H103.878ZM104.171 56.515V57.2035H101.904V56.515H104.171ZM104.687 56.515H106.278C106.604 56.515 106.884 56.5638 107.119 56.6615C107.355 56.7592 107.537 56.9037 107.664 57.0951C107.791 57.2865 107.854 57.5219 107.854 57.8011C107.854 58.0297 107.815 58.226 107.737 58.39C107.661 58.5521 107.552 58.6879 107.412 58.7972C107.273 58.9047 107.11 58.9906 106.922 59.0551L106.644 59.2015H105.261L105.255 58.516H106.284C106.438 58.516 106.566 58.4886 106.667 58.434C106.769 58.3793 106.845 58.3031 106.896 58.2054C106.949 58.1078 106.975 57.9945 106.975 57.8656C106.975 57.7289 106.95 57.6107 106.899 57.5111C106.848 57.4115 106.771 57.3353 106.667 57.2826C106.564 57.2299 106.434 57.2035 106.278 57.2035H105.566V60.7806H104.687V56.515ZM107.072 60.7806L106.099 58.8793L107.028 58.8734L108.012 60.7396V60.7806H107.072ZM110.751 59.6644C110.751 59.5883 110.74 59.5199 110.716 59.4594C110.695 59.3969 110.654 59.3402 110.593 59.2894C110.533 59.2367 110.448 59.1849 110.338 59.1342C110.229 59.0834 110.087 59.0306 109.914 58.976C109.72 58.9135 109.537 58.8431 109.363 58.765C109.191 58.6869 109.039 58.5961 108.906 58.4926C108.775 58.3871 108.671 58.265 108.595 58.1263C108.521 57.9877 108.484 57.8265 108.484 57.6429C108.484 57.4652 108.523 57.3041 108.601 57.1595C108.679 57.0131 108.789 56.8881 108.929 56.7845C109.07 56.6791 109.236 56.598 109.427 56.5414C109.621 56.4847 109.833 56.4564 110.063 56.4564C110.377 56.4564 110.652 56.5131 110.886 56.6263C111.121 56.7396 111.302 56.8949 111.431 57.0922C111.562 57.2894 111.627 57.515 111.627 57.7689H110.754C110.754 57.6439 110.728 57.5345 110.675 57.4408C110.625 57.3451 110.546 57.2699 110.441 57.2152C110.337 57.1605 110.207 57.1332 110.048 57.1332C109.896 57.1332 109.769 57.1566 109.667 57.2035C109.566 57.2484 109.49 57.3099 109.439 57.3881C109.388 57.4642 109.363 57.5502 109.363 57.6459C109.363 57.7181 109.38 57.7836 109.416 57.8422C109.453 57.9008 109.507 57.9554 109.58 58.0062C109.652 58.057 109.741 58.1049 109.846 58.1498C109.952 58.1947 110.074 58.2386 110.212 58.2816C110.445 58.3519 110.649 58.431 110.825 58.5189C111.002 58.6068 111.151 58.7054 111.27 58.8148C111.389 58.9242 111.479 59.0482 111.54 59.1869C111.6 59.3256 111.63 59.4828 111.63 59.6586C111.63 59.8441 111.594 60.0101 111.522 60.1566C111.45 60.3031 111.345 60.4271 111.208 60.5287C111.072 60.6302 110.909 60.7074 110.719 60.7601C110.53 60.8129 110.318 60.8392 110.083 60.8392C109.873 60.8392 109.665 60.8119 109.459 60.7572C109.254 60.7006 109.068 60.6156 108.9 60.5023C108.734 60.389 108.601 60.2445 108.501 60.0687C108.402 59.8929 108.352 59.6849 108.352 59.4447H109.234C109.234 59.5775 109.254 59.6898 109.295 59.7816C109.336 59.8734 109.394 59.9476 109.468 60.0043C109.544 60.0609 109.634 60.1019 109.738 60.1273C109.843 60.1527 109.958 60.1654 110.083 60.1654C110.236 60.1654 110.361 60.1439 110.458 60.101C110.558 60.058 110.631 59.9984 110.678 59.9222C110.727 59.8461 110.751 59.7601 110.751 59.6644Z" fill="#8E8F99"/>
</g>
</g>
</g>
</svg>

<svg xmlns="http://www.w3.org/2000/svg" width="168" height="88" fill="none"><rect width="167" height="87" x=".5" y=".5" stroke="#8E8F99" rx="3.5"/><g fill="#8E8F99"><path d="M56.078 37.518h-.003c-2.385 0-4.32 1.744-4.32 3.894v.003c0 2.15 1.935 3.894 4.32 3.894h.003c2.386 0 4.32-1.743 4.32-3.894v-.003c0-2.15-1.934-3.894-4.32-3.894ZM87.961 36.273c-.006-2.988-1.326-5.85-3.668-7.964-2.343-2.112-5.519-3.302-8.832-3.309-3.314.005-6.491 1.195-8.835 3.308-2.344 2.113-3.664 4.977-3.671 7.965v16.474s25.004-2.51 25.006-16.471v-.003ZM43 58.154c.006 2.079.924 4.071 2.554 5.541 1.63 1.47 3.84 2.299 6.145 2.305 2.305-.006 4.514-.834 6.144-2.304 1.63-1.47 2.548-3.46 2.555-5.54V46.695S43 48.442 43 58.154Zm8.699 2.054c-.45 0-.891-.12-1.266-.346a2.115 2.115 0 0 1-.839-.922 1.867 1.867 0 0 1-.13-1.186 2 2 0 0 1 .624-1.052 2.365 2.365 0 0 1 1.167-.562c.441-.08.9-.039 1.316.117.416.155.772.419 1.022.756.25.338.384.735.384 1.141.001.27-.057.539-.171.789-.114.25-.282.477-.493.669a2.31 2.31 0 0 1-.74.447 2.495 2.495 0 0 1-.874.157v-.008ZM67.609 56.515v4.266h-.879v-4.266h.879Zm1.7 1.822v.686h-1.94v-.686h1.94Zm.204-1.822v.688H67.37v-.688h2.144Zm4.014 2.033v.202c0 .325-.044.616-.132.873a1.92 1.92 0 0 1-.372.66c-.16.18-.352.317-.574.413a1.83 1.83 0 0 1-.736.143c-.267 0-.512-.048-.735-.143a1.648 1.648 0 0 1-.574-.413 1.93 1.93 0 0 1-.378-.66 2.696 2.696 0 0 1-.132-.873v-.202c0-.326.044-.617.132-.873a1.92 1.92 0 0 1 .372-.659c.162-.182.353-.32.574-.416.223-.096.468-.144.736-.144.27 0 .514.048.735.144.222.096.414.234.574.416.162.182.287.401.375.66.09.255.135.546.135.872Zm-.888.202v-.208c0-.226-.02-.425-.061-.597a1.295 1.295 0 0 0-.182-.434.784.784 0 0 0-.293-.264.838.838 0 0 0-.395-.09c-.149 0-.28.03-.396.09a.791.791 0 0 0-.29.264 1.333 1.333 0 0 0-.179.434 2.587 2.587 0 0 0-.061.597v.208c0 .225.02.424.061.598.041.172.102.317.182.437.08.117.178.206.293.266.115.06.247.091.395.091.149 0 .28-.03.396-.09a.786.786 0 0 0 .29-.267c.078-.12.138-.265.179-.437a2.61 2.61 0 0 0 .061-.598Zm3.741.914a.563.563 0 0 0-.035-.205.388.388 0 0 0-.123-.17 1.09 1.09 0 0 0-.255-.155 3.587 3.587 0 0 0-.424-.158 5.377 5.377 0 0 1-.551-.211 2.261 2.261 0 0 1-.457-.272 1.228 1.228 0 0 1-.31-.367 1.01 1.01 0 0 1-.112-.483 1 1 0 0 1 .117-.483c.078-.147.188-.272.328-.375.14-.106.307-.187.498-.244.194-.056.405-.085.636-.085.314 0 .589.057.823.17.234.114.416.269.545.466.13.197.196.423.196.677h-.873a.658.658 0 0 0-.079-.328.535.535 0 0 0-.234-.226.835.835 0 0 0-.393-.082.908.908 0 0 0-.38.07.507.507 0 0 0-.23.185.454.454 0 0 0-.075.258c0 .072.017.138.052.196a.594.594 0 0 0 .165.164c.072.051.16.099.266.144.106.045.228.089.366.132.233.07.437.149.613.237.177.088.326.186.445.296.12.11.209.233.27.372.06.139.09.296.09.472a1.024 1.024 0 0 1-.422.87c-.136.101-.3.178-.489.231-.19.053-.401.08-.636.08-.21 0-.419-.028-.624-.083a1.894 1.894 0 0 1-.56-.255 1.285 1.285 0 0 1-.398-.433c-.1-.176-.149-.384-.149-.624h.882c0 .133.02.245.061.337a.563.563 0 0 0 .173.222.743.743 0 0 0 .27.123c.105.026.22.038.345.038a.939.939 0 0 0 .375-.064.463.463 0 0 0 .293-.437Zm3.384-3.149v4.266h-.876v-4.266h.876Zm1.313 0v.688h-3.48v-.688h3.48Zm3.363 3.58v.686h-2.27v-.686h2.27Zm-1.983-3.58v4.266h-.88v-4.266h.88Zm1.687 1.737v.668h-1.975v-.668h1.975Zm.293-1.737v.688h-2.268v-.688h2.268Zm.516 0h1.59c.327 0 .607.049.841.146.237.098.418.243.545.434.127.191.19.427.19.706 0 .229-.038.425-.117.589a1.1 1.1 0 0 1-.325.407 1.685 1.685 0 0 1-.489.258l-.278.147h-1.383l-.006-.686h1.028a.805.805 0 0 0 .384-.082.537.537 0 0 0 .229-.229.703.703 0 0 0 .079-.34.773.773 0 0 0-.076-.354.514.514 0 0 0-.232-.228.855.855 0 0 0-.39-.08h-.712v3.578h-.878v-4.266Zm2.384 4.266-.972-1.902.928-.006.985 1.867v.04h-.94Zm4.615-1.52h-1.087v-.686h1.087a.892.892 0 0 0 .41-.082.527.527 0 0 0 .231-.235.86.86 0 0 0 0-.691.592.592 0 0 0-.231-.264.76.76 0 0 0-.41-.1h-.783v3.578h-.879v-4.266h1.662c.334 0 .62.06.858.182.24.119.424.284.55.495.128.21.191.452.191.723 0 .276-.063.514-.19.715-.127.201-.31.357-.55.466-.24.11-.525.164-.86.164Zm5.068.834v.686h-2.27v-.686h2.27Zm-1.983-3.58v4.266h-.88v-4.266h.88Zm1.687 1.737v.668H94.75v-.668h1.975Zm.293-1.737v.688H94.75v-.688h2.267Zm2.482 0v4.266h-.876v-4.266h.876Zm1.312 0v.688h-3.48v-.688h3.48Zm3.363 3.58v.686h-2.27v-.686h2.27Zm-1.983-3.58v4.266h-.879v-4.266h.879Zm1.687 1.737v.668h-1.974v-.668h1.974Zm.293-1.737v.688h-2.267v-.688h2.267Zm.516 0h1.591c.326 0 .606.049.841.146.236.098.418.243.545.434.127.191.19.427.19.706 0 .229-.039.425-.117.589a1.106 1.106 0 0 1-.325.407 1.689 1.689 0 0 1-.49.258l-.278.147h-1.383l-.006-.686h1.029a.8.8 0 0 0 .383-.082.537.537 0 0 0 .229-.229.7.7 0 0 0 .079-.34.769.769 0 0 0-.076-.354.514.514 0 0 0-.232-.228.851.851 0 0 0-.389-.08h-.712v3.578h-.879v-4.266Zm2.385 4.266-.973-1.902.929-.006.984 1.867v.04h-.94Zm3.679-1.117a.553.553 0 0 0-.035-.205.38.38 0 0 0-.123-.17 1.066 1.066 0 0 0-.255-.155 3.595 3.595 0 0 0-.424-.158 5.345 5.345 0 0 1-.551-.211 2.264 2.264 0 0 1-.457-.272 1.225 1.225 0 0 1-.311-.367 1.011 1.011 0 0 1-.111-.483c0-.178.039-.339.117-.483a1.12 1.12 0 0 1 .328-.375c.141-.106.307-.187.498-.244a2.26 2.26 0 0 1 .636-.085c.314 0 .589.057.823.17.235.114.416.269.545.466.131.197.196.423.196.677h-.873a.655.655 0 0 0-.079-.328.533.533 0 0 0-.234-.226.836.836 0 0 0-.393-.082.911.911 0 0 0-.381.07.51.51 0 0 0-.228.185.452.452 0 0 0-.076.258c0 .072.017.138.053.196a.582.582 0 0 0 .164.164c.072.051.161.099.266.144.106.045.228.089.366.132.233.07.437.149.613.237.177.088.326.186.445.296.119.11.209.233.27.372.06.139.09.296.09.472 0 .185-.036.351-.108.498a1.02 1.02 0 0 1-.314.372 1.462 1.462 0 0 1-.489.231c-.189.053-.401.08-.636.08-.21 0-.418-.028-.624-.083a1.892 1.892 0 0 1-.559-.255 1.29 1.29 0 0 1-.399-.433 1.251 1.251 0 0 1-.149-.624h.882c0 .133.02.245.061.337a.566.566 0 0 0 .173.222.74.74 0 0 0 .27.123c.105.026.22.038.345.038a.934.934 0 0 0 .375-.064.462.462 0 0 0 .293-.437Z"/></g></svg>
